src/pages/Benefit/assets/horseIcon.svg

<svg width="32" height="32" viewBox="0 0 32 32" fill="none" xmlns="http://www.w3.org/2000/svg">
<path fill-rule="evenodd" clip-rule="evenodd" d="M13.3455 5.862L18.1498 0C18.8452 1.38119 19.5194 3.81887 18.5501 5.57863C19.0206 5.62245 19.4702 5.70571 19.818 5.85171C22.0368 6.7832 24.4713 9.1898 25.6679 14.1969C26.0144 15.6468 26.638 16.3411 27.3792 17.1663C28.0783 17.9447 28.8821 18.8396 29.6565 20.5949C31.2519 24.2112 26.9462 27.8274 23.8066 24.5429C22.0414 22.6963 20.4985 21.934 19.2031 21.294C17.3387 20.3728 15.987 19.705 15.2235 16.4223C14.8602 17.9535 15.0055 21.5672 18.4928 23.7722C21.9801 25.9772 22.7066 30.6219 22.634 32H2.8C2.8 18.9165 4.45581 7.61244 13.3455 5.862Z" fill="#A79DF3"/>
<path d="M13.3458 5.862L18.1502 0C18.8456 1.38119 19.5198 3.81887 18.5505 5.57863C19.021 5.62245 19.4706 5.70571 19.8184 5.85171C14.679 6.03447 5.04038 11.52 7.60038 32H2.80038C2.80038 18.9165 4.45619 7.61244 13.3458 5.862Z" fill="#464BFF"/>
</svg>

<svg xmlns="http://www.w3.org/2000/svg" width="32" height="32" fill="none"><path fill="#A79DF3" fill-rule="evenodd" d="M13.346 5.862 18.15 0c.695 1.381 1.37 3.819.4 5.579.47.043.92.127 1.268.273 2.219.931 4.653 3.338 5.85 8.345.346 1.45.97 2.144 1.711 2.97.7.778 1.503 1.673 2.278 3.428 1.595 3.616-2.71 7.232-5.85 3.948-1.766-1.847-3.308-2.609-4.604-3.249-1.864-.921-3.216-1.589-3.98-4.872-.363 1.531-.218 5.145 3.27 7.35s4.214 6.85 4.141 8.228H2.8c0-13.083 1.656-24.388 10.546-26.138" clip-rule="evenodd"/><path fill="#464BFF" d="M13.346 5.862 18.15 0c.696 1.381 1.37 3.819.4 5.579.471.043.92.127 1.268.273C14.68 6.034 5.04 11.52 7.6 32H2.8c0-13.083 1.656-24.388 10.546-26.138"/></svg>
